X: 14124
T: Frieze Breeches, The
R: jig
M: 6/8
K: Dmixolydian
FED EFG|A2 d cAG|A^GA BA=G|FAF GFE|
FED EFG|A2 d cAG|FAF GE[^CA]|DED D2:|
d2 e fed|e2 d cAG|A^GA BA=G|FAF GED|
d2 e fed|efd cAG|FAF GE[^CA]|DED D2:|
DED c3|AdB cAG|AB^c d2 e|fed cAF|
D^CD =c3|AdB cAG|FAF GE[^CA]|DED D2:|
d2 e fdd|Add fed|^c2 d eAA|fAA ge^c|
d2 e fdd|add fed|faf ge^c|ded d2:|
fed ed^c|ded cAG|A^GA BA=G|FAF GED|
fed e^cA|ded cAG|FAF GE[^CA]|DED D2 e|
fdf e^ce|dAd cAG|A^GA BA=G|FAF GE^c|
faf geg|afd cAG|FAF GE[^CA]|DED D2||

